X:234
T:The Swallowtail Reel
S:Padraig O'Neill - The Friday Night Sessions, Glasgow
Z:robin.beech@mcgill.ca
R:reel
M:4/4
L:1/8
K:Ador
e3d eA(3AAA | eAef gGga | gedB dG(3GGG | BG(3Bcd g2fg |
e3d eA(3AAA | eAef gGga | bagb agef | gedB A2(3Bcd ::
eaa2 aged | ^cdef g3f | gedB dG(3GGG | BG(3Bcd g2fg |
eaa2 aged | ^cdef gfga |  bagb agef | gedB A2(3Bcd :|
